X:1
T:Crabs in the Skillet -- Jig
R:jig
B:Ryan's Mammoth Collection
Z:Contributed by Ray Davies, ray:davies99.freeserve.co.uk
M:6/8
L:1/8
K:Cdor
vG3  (d2.^F)|(G2.A) (B2.c)|ded cBA|dcB AG^F|
G3  (d2.^F)|(G2.A) (B2.d)|cAc f=ed|1 cAF F=EF:|2 cAF F3 |]
vgag gf=e|fgf f=ed|cd=e fed|cAG G3 |
gag gf=e|fgf f=ed|cd=e fef|1 cAF F2 z:|2 cAF F=EF|]
vkG2 z  ukA2 z |kB2 z kc2 z|d_ed cBA|dcB AG^F|
kG2 z kA2 z|kB2 z kd2 z|cAc f=ed|1 cAF F=EF:|2 cAF F2 z |]
